assets/Vulcan salute/Medium-Light/Flat/vulcan_salute_flat_medium-light.svg

<svg width="32" height="32" viewBox="0 0 32 32" fill="none" xmlns="http://www.w3.org/2000/svg">
<path d="M3.21879 11.5C3.45879 12.41 4.375 15.0156 4.57812 16.0313C4.78125 17.0469 4.56313 14.8594 5.14062 20.2656C5.71812 25.6719 8.87251 29.9925 14.3925 29.9925C17.9375 29.9925 20.9062 27.5469 22.2656 25.0157C23.5749 22.5776 26.509 18.7859 28.1719 16.8594C29.2219 15.8094 29.3469 14.0657 28.2969 13.0157C27.2469 11.9657 25.675 12.0594 24.625 13.1094L22.0156 15.9219L25.0469 8.07815C25.625 6.7969 25.376 5.08596 23.8125 4.4219C22.5052 3.86664 21.0547 4.61721 20.2969 6.7969C20.2969 6.7969 20.5145 6.31159 20.8047 5.08596C21.0949 3.86033 20.4113 2.54502 19.2613 2.24502C18.1113 1.93502 16.8385 2.15094 16.25 3.58597C15.6797 4.97659 14.3594 9.32035 13.9375 11.1485C13.8353 11.5912 13.7031 11.7891 13.6016 11.7891C13.5 11.7891 13.4191 11.5427 13.2891 11.1485C12.8047 9.67971 11.8119 6.62964 11.4922 5.78127C11.0859 4.70315 9.71812 4.12752 8.57812 4.43752C7.42813 4.74752 6.63281 6.08596 6.90625 7.05471C7.17969 8.02346 7.39058 8.82815 7.39058 8.82815C7.03058 7.76815 5.60933 7.18752 4.31246 7.68752C2.56245 8.53127 2.76731 9.7882 3.21879 11.5Z" fill="#EEBFAA"/>
<path d="M16.9707 4.11435C17.1756 3.34511 17.532 2.79402 17.9327 2.48274C18.2626 2.22641 18.6331 2.12122 19.03 2.19026C17.9447 1.96921 16.7993 2.24656 16.25 3.58597C15.6797 4.97659 14.3594 9.32035 13.9375 11.1485C13.8763 11.4137 13.8043 11.591 13.7346 11.6906C13.7424 11.8997 13.8819 12.0896 14.0938 12.1517C14.3587 12.2294 14.6365 12.0775 14.7142 11.8126L16.9674 4.12628L16.9707 4.11435Z" fill="#D6A089"/>
<path d="M19.2389 2.23907C19.216 2.23303 19.193 2.2272 19.17 2.22159C19.1926 2.22777 19.2153 2.2345 19.2381 2.2418L19.2389 2.23907Z" fill="#D6A089"/>
<path d="M18.3242 12.5927L20.4725 6.3448C21.2469 4.55556 22.5412 3.93441 23.7319 4.38938C23.3092 4.28129 22.9221 4.39111 22.5597 4.69089C22.1563 5.02454 21.7938 5.59182 21.538 6.32146L21.5375 6.3228L19.2698 12.9178C19.1801 13.179 18.8956 13.3179 18.6344 13.2281C18.3733 13.1383 18.2344 12.8538 18.3242 12.5927Z" fill="#D6A089"/>
<path d="M9.09256 13.4676L7.34532 8.65704C7.26914 8.3705 7.10406 7.75552 6.90624 7.05468C6.67788 6.24563 7.19493 5.17875 8.04147 4.6684C7.85783 4.8528 7.73987 5.09665 7.68043 5.39595C7.5784 5.90964 7.65582 6.57877 7.91866 7.30637L10.0325 13.1262C10.1268 13.3857 9.99276 13.6726 9.73321 13.7668C9.47366 13.8611 9.18683 13.7271 9.09256 13.4676Z" fill="#D6A089"/>
<path d="M10.2154 17.6379C11.3785 17.5548 13.1717 17.4463 14.9855 17.5303C16.2179 17.5874 17.4231 17.7323 18.4357 18.0161C17.9254 18.1871 17.311 18.42 16.6417 18.7296C14.8216 19.5715 12.5675 20.9932 10.9064 23.3058C10.7453 23.5301 10.7965 23.8425 11.0208 24.0036C11.2451 24.1647 11.5575 24.1135 11.7186 23.8892C13.245 21.7643 15.3346 20.436 17.0615 19.6372C17.9227 19.2389 18.6868 18.9754 19.234 18.8119C19.5073 18.7302 19.7259 18.6737 19.8745 18.6379C19.9488 18.62 20.0056 18.6073 20.043 18.5992L20.0842 18.5906L20.0934 18.5887L20.0948 18.5884C20.3015 18.5483 20.4613 18.383 20.494 18.175C20.5266 17.9669 20.4253 17.7606 20.2406 17.6592C18.859 16.9007 16.8883 16.6173 15.0318 16.5314C13.1563 16.4445 11.3145 16.5569 10.1442 16.6404C9.86875 16.6601 9.66141 16.8994 9.68108 17.1748C9.70075 17.4502 9.93999 17.6576 10.2154 17.6379Z" fill="#D6A089"/>
</svg>

<svg xmlns="http://www.w3.org/2000/svg" width="32" height="32" fill="none"><path fill="#EEBFAA" d="M3.219 11.5c.24.91 1.156 3.516 1.36 4.531.202 1.016-.016-1.172.562 4.235.577 5.406 3.732 9.727 9.252 9.727 3.544 0 6.513-2.446 7.873-4.977 1.309-2.438 4.243-6.23 5.906-8.157 1.05-1.05 1.175-2.793.125-3.843-1.05-1.05-2.622-.957-3.672.093l-2.61 2.813 3.032-7.844c.578-1.281.329-2.992-1.235-3.656-1.307-.555-2.757.195-3.515 2.375 0 0 .218-.485.508-1.711.29-1.226-.394-2.541-1.544-2.841-1.15-.31-2.422-.094-3.011 1.341-.57 1.39-1.89 5.734-2.313 7.563-.102.442-.234.64-.335.64-.102 0-.183-.246-.313-.64-.484-1.47-1.477-4.52-1.797-5.368-.406-1.078-1.774-1.653-2.914-1.343-1.15.31-1.945 1.648-1.672 2.617.274.968.485 1.773.485 1.773-.36-1.06-1.782-1.64-3.079-1.14-1.75.843-1.545 2.1-1.093 3.812Z"/><path fill="#D6A089" d="M16.97 4.114c.206-.769.562-1.32.963-1.631.33-.257.7-.362 1.097-.293-1.085-.22-2.23.057-2.78 1.396-.57 1.39-1.89 5.734-2.313 7.563-.06.265-.133.442-.202.542a.5.5 0 0 0 .98.122l2.252-7.687.004-.012ZM19.239 2.24a3.816 3.816 0 0 0-.069-.018l.068.02v-.003ZM18.324 12.593l2.148-6.248c.775-1.79 2.07-2.41 3.26-1.956-.423-.108-.81.002-1.172.302-.404.334-.766.9-1.022 1.63v.002l-2.268 6.595a.5.5 0 1 1-.946-.325ZM9.093 13.468 7.345 8.657c-.076-.287-.24-.901-.439-1.602-.228-.81.289-1.876 1.135-2.387-.183.185-.301.429-.36.728-.103.514-.025 1.183.238 1.91l2.114 5.82a.5.5 0 1 1-.94.342ZM10.215 17.638c1.164-.083 2.957-.192 4.77-.108 1.233.057 2.438.202 3.45.486a17.65 17.65 0 0 0-1.793.714c-1.82.841-4.074 2.263-5.736 4.576a.5.5 0 1 0 .813.583c1.526-2.125 3.616-3.453 5.342-4.252a16.446 16.446 0 0 1 2.173-.825 12.374 12.374 0 0 1 .809-.213l.041-.008.01-.002a.5.5 0 0 0 .147-.93c-1.382-.758-3.353-1.042-5.21-1.128-1.875-.086-3.716.026-4.887.11a.5.5 0 0 0 .071.997Z"/></svg>
